static/images/skills/typescript.svg

<?xml version="1.0" encoding="UTF-8" standalone="no"?>
<!DOCTYPE svg PUBLIC "-//W3C//DTD SVG 1.1//EN" "http://www.w3.org/Graphics/SVG/1.1/DTD/svg11.dtd">
<svg width="100%" height="100%" viewBox="0 0 1200 900" version="1.1" xmlns="http://www.w3.org/2000/svg" xmlns:xlink="http://www.w3.org/1999/xlink" xml:space="preserve" xmlns:serif="http://www.serif.com/" style="fill-rule:evenodd;clip-rule:evenodd;stroke-linejoin:round;stroke-miterlimit:2;">
    <rect x="0" y="0" width="1200" height="900" style="fill:rgb(0,53,86);"/>
    <g transform="matrix(4.79233,0,0,4.79233,293.291,143.291)">
        <g transform="matrix(1.0016,0,0,1.0016,-0.1024,-0.012256)">
            <rect x="22.67" y="47" width="99.67" height="73.67" style="fill:white;fill-rule:nonzero;"/>
        </g>
        <g transform="matrix(1.0016,0,0,1.0016,-0.1024,-0.012256)">
            <path d="M1.5,1.41L1.5,126.41L126.5,126.41L126.5,1.41L1.5,1.41ZM102.23,58.91C105.224,59.605 107.945,61.171 110.05,63.41C111.209,64.616 112.216,65.96 113.05,67.41C113.05,67.57 107.65,71.22 104.36,73.26C104.24,73.34 103.76,72.82 103.23,72.03C102.011,69.926 99.79,68.591 97.36,68.5C93.57,68.24 91.13,70.23 91.15,73.5C91.119,74.314 91.305,75.122 91.69,75.84C92.52,77.57 94.07,78.6 98.93,80.7C107.88,84.55 111.71,87.09 114.09,90.7C116.75,94.7 117.34,101.16 115.54,105.94C113.54,111.14 108.64,114.67 101.71,115.84C98.545,116.203 95.347,116.169 92.19,115.74C87.352,114.943 82.894,112.619 79.47,109.11C78.32,107.84 76.08,104.53 76.22,104.29C76.585,104.019 76.969,103.775 77.37,103.56L82,101L85.59,98.92L86.34,100.03C87.606,101.841 89.217,103.383 91.08,104.57C95.08,106.67 100.54,106.38 103.24,103.95C105.103,102.12 105.395,99.192 103.93,97.03C102.93,95.64 100.93,94.47 95.34,92.03C88.89,89.25 86.11,87.53 83.57,84.79C81.984,82.982 80.814,80.849 80.14,78.54C79.638,75.902 79.563,73.201 79.92,70.54C81.25,64.31 85.92,59.96 92.74,58.67C95.898,58.279 99.098,58.367 102.23,58.93L102.23,58.91ZM72.89,64.15L72.89,69.27L56.66,69.27L56.66,115.5L45.15,115.5L45.15,69.26L28.88,69.26L28.88,64.26C28.829,62.536 28.869,60.81 29,59.09C29.08,59 39,59 51,59L72.83,59L72.89,64.15Z" style="fill:rgb(0,122,204);fill-rule:nonzero;"/>
        </g>
    </g>
</svg>

<svg xmlns="http://www.w3.org/2000/svg" xml:space="preserve" style="fill-rule:evenodd;clip-rule:evenodd;stroke-linejoin:round;stroke-miterlimit:2" viewBox="0 0 1200 900"><path d="M0 0h1200v900H0z" style="fill:#003556"/><path d="M22.67 47h99.67v73.67H22.67z" style="fill:#fff;fill-rule:nonzero" transform="matrix(4.8 0 0 4.8 292.8 143.232)"/><path d="M1.5 1.41v125h125v-125zm100.73 57.5a15.56 15.56 0 0 1 7.82 4.5 20.6 20.6 0 0 1 3 4c0 .16-5.4 3.81-8.69 5.85-.12.08-.6-.44-1.13-1.23a7.1 7.1 0 0 0-5.87-3.53c-3.79-.26-6.23 1.73-6.21 5a4.6 4.6 0 0 0 .54 2.34c.83 1.73 2.38 2.76 7.24 4.86 8.95 3.85 12.78 6.39 15.16 10 2.66 4 3.25 10.46 1.45 15.24-2 5.2-6.9 8.73-13.83 9.9a38.3 38.3 0 0 1-9.52-.1 23 23 0 0 1-12.72-6.63c-1.15-1.27-3.39-4.58-3.25-4.82a9 9 0 0 1 1.15-.73L82 101l3.59-2.08.75 1.11a16.8 16.8 0 0 0 4.74 4.54c4 2.1 9.46 1.81 12.16-.62a5.45 5.45 0 0 0 .69-6.92c-1-1.39-3-2.56-8.59-5-6.45-2.78-9.23-4.5-11.77-7.24a16.5 16.5 0 0 1-3.43-6.25 25 25 0 0 1-.22-8c1.33-6.23 6-10.58 12.82-11.87a31.7 31.7 0 0 1 9.49.26zm-29.34 5.24v5.12H56.66v46.23H45.15V69.26H28.88v-5a49 49 0 0 1 .12-5.17C29.08 59 39 59 51 59h21.83z" style="fill:#007acc;fill-rule:nonzero" transform="matrix(4.8 0 0 4.8 292.8 143.232)"/></svg>
